;FLAVOR:Marlin
;TIME:3677
;Filament used: 3.1533m
;Layer height: 0.2
;MINX:21.302
;MINY:128.438
;MINZ:0.2
;MAXX:87.302
;MAXY:181.438
;MAXZ:11.4
;Generated with Cura_SteamEngine 4.13.1
M140 S50
M105
M190 S50
M104 S200
M105
M109 S200
M82 ;absolute extrusion mode
M201 X500.00 Y500.00 Z100.00 E5000.00 ;Setup machine max acceleration
M203 X500.00 Y500.00 Z10.00 E50.00 ;Setup machine max feedrate
M204 P500.00 R1000.00 T500.00 ;Setup Print/Retract/Travel acceleration
M205 X8.00 Y8.00 Z0.40 E5.00 ;Setup Jerk
M220 S100 ;Reset Feedrate
M221 S100 ;Reset Flowrate

G28 ;Home

G92 E0 ;Reset Extruder
G1 Z2.0 F3000 ;Move Z Axis up
G1 X10.1 Y20 Z0.28 F5000.0 ;Move to start position
G1 X10.1 Y200.0 Z0.28 F1500.0 E15 ;Draw the first line
G1 X10.4 Y200.0 Z0.28 F5000.0 ;Move to side a little
G1 X10.4 Y20 Z0.28 F1500.0 E30 ;Draw the second line
G92 E0 ;Reset Extruder
G1 Z2.0 F3000 ;Move Z Axis up

G92 E0
G92 E0
G1 F2700 E-5
;LAYER_COUNT:57
;LAYER:0
M107
G0 F6000 X32.372 Y128.751 Z0.2
;TYPE:SKIRT
G1 F2700 E0
G1 F1200 X33.329 Y128.595 E0.03225
G1 X34.526 Y128.476 E0.07226
G1 X35.298 Y128.438 E0.09797
G1 X73.306 Y128.438 E1.36212
G1 X74.078 Y128.476 E1.38783
G1 X75.275 Y128.595 E1.42783
G1 X76.254 Y128.756 E1.46083
G1 X76.775 Y128.893 E1.47875
G1 X77.917 Y129.237 E1.51842
G1 X78.853 Y129.586 E1.55165
G1 X79.369 Y129.839 E1.57076
G1 X80.418 Y130.401 E1.61034
G1 X81.079 Y130.798 E1.63599
G1 X81.7 Y131.258 E1.66169
G1 X82.625 Y132.017 E1.70149
G1 X83.207 Y132.547 E1.72767
G1 X83.724 Y133.117 E1.75326
G1 X84.484 Y134.044 E1.79313
G1 X84.891 Y134.586 E1.81568
G1 X85.339 Y135.322 E1.84433
G1 X85.902 Y136.373 E1.88399
G1 X86.162 Y136.906 E1.90371
G1 X86.503 Y137.824 E1.93629
G1 X86.853 Y138.986 E1.97665
G1 X87.042 Y139.753 E2.00292
G1 X87.146 Y140.47 E2.02702
G1 X87.264 Y141.666 E2.06699
G1 X87.302 Y142.432 E2.0925
G1 X87.302 Y167.442 E2.92434
G1 X87.264 Y168.207 E2.94981
G1 X87.146 Y169.404 E2.98982
G1 X86.985 Y170.39 E3.02305
G1 X86.846 Y170.914 E3.04108
G1 X86.502 Y172.054 E3.08068
G1 X86.139 Y173.022 E3.11507
G1 X85.901 Y173.505 E3.13298
G1 X85.339 Y174.554 E3.17256
G1 X84.942 Y175.215 E3.1982
G1 X84.478 Y175.84 E3.22409
G1 X83.703 Y176.783 E3.26469
G1 X83.171 Y177.367 E3.29097
G1 X82.623 Y177.863 E3.31555
G1 X81.701 Y178.619 E3.35521
G1 X81.158 Y179.026 E3.37778
G1 X80.419 Y179.475 E3.40654
G1 X79.365 Y180.039 E3.4463
G1 X78.835 Y180.298 E3.46592
G1 X77.923 Y180.637 E3.49828
G1 X76.781 Y180.982 E3.53796
G1 X76.232 Y181.126 E3.55683
G1 X75.268 Y181.282 E3.58931
G1 X74.071 Y181.4 E3.62932
G1 X73.306 Y181.438 E3.65479
G1 X35.298 Y181.438 E4.91895
G1 X34.533 Y181.4 E4.94442
G1 X33.336 Y181.282 E4.98443
G1 X32.35 Y181.121 E5.01766
G1 X31.823 Y180.982 E5.03578
G1 X30.681 Y180.637 E5.07546
G1 X29.751 Y180.29 E5.10848
G1 X29.239 Y180.039 E5.12744
G1 X28.185 Y179.475 E5.1672
G1 X27.43 Y179.015 E5.19661
G1 X26.903 Y178.619 E5.21853
G1 X25.981 Y177.863 E5.25819
G1 X25.397 Y177.332 E5.28444
G1 X24.901 Y176.783 E5.30905
G1 X24.126 Y175.84 E5.34965
G1 X23.65 Y175.197 E5.37626
G1 X23.265 Y174.554 E5.40118
G1 X22.703 Y173.505 E5.44076
G1 X22.456 Y173.002 E5.4594
G1 X22.102 Y172.054 E5.49306
G1 X21.758 Y170.914 E5.53266
G1 X21.614 Y170.368 E5.55145
G1 X21.458 Y169.405 E5.58389
G1 X21.34 Y168.21 E5.62383
G1 X21.302 Y167.444 E5.64934
G1 X21.302 Y142.434 E6.48118
G1 X21.34 Y141.668 E6.50668
G1 X21.458 Y140.472 E6.54666
G1 X21.619 Y139.487 E6.57985
G1 X21.758 Y138.963 E6.59788
G1 X22.102 Y137.823 E6.63749
G1 X22.465 Y136.855 E6.67187
G1 X22.703 Y136.372 E6.68978
G1 X23.265 Y135.323 E6.72937
G1 X23.662 Y134.662 E6.75501
G1 X24.119 Y134.044 E6.78058
G1 X24.878 Y133.118 E6.8204
G1 X25.411 Y132.533 E6.84672
G1 X25.978 Y132.019 E6.87217
G1 X26.904 Y131.259 E6.91202
G1 X27.543 Y130.786 E6.93846
G1 X28.186 Y130.401 E6.96339
G1 X29.235 Y129.839 E7.00297
G1 X29.769 Y129.578 E7.02274
G1 X30.687 Y129.237 E7.05531
G1 X31.829 Y128.893 E7.09498
G1 X32.372 Y128.751 E7.11365
G0 F6000 X32.461 Y129.141
G1 F1200 X33.369 Y128.993 E7.14424
G1 X34.566 Y128.874 E7.18425
G1 X35.298 Y128.838 E7.20863
G1 X73.306 Y128.838 E8.47278
G1 X74.038 Y128.874 E8.49716
G1 X75.235 Y128.993 E8.53716
G1 X76.165 Y129.146 E8.56851
G1 X76.659 Y129.276 E8.5855
G1 X77.801 Y129.62 E8.62517
G1 X78.69 Y129.952 E8.65673
G1 X79.18 Y130.191 E8.67487
G1 X80.229 Y130.753 E8.71445
G1 X80.857 Y131.131 E8.73883
G1 X81.446 Y131.567 E8.7632
G1 X82.371 Y132.326 E8.803
G1 X82.925 Y132.829 E8.82789
G1 X83.415 Y133.37 E8.85216
G1 X84.175 Y134.297 E8.89203
G1 X84.561 Y134.813 E8.91347
G1 X84.986 Y135.511 E8.94065
G1 X85.549 Y136.562 E8.9803
G1 X85.796 Y137.069 E8.99906
G1 X86.12 Y137.94 E9.02997
G1 X86.47 Y139.102 E9.07033
G1 X86.653 Y139.849 E9.09591
G1 X86.748 Y140.509 E9.11809
G1 X86.866 Y141.705 E9.15806
G1 X86.902 Y142.432 E9.18227
G1 X86.902 Y167.442 E10.01411
G1 X86.866 Y168.168 E10.03828
G1 X86.748 Y169.365 E10.07829
G1 X86.595 Y170.301 E10.10983
G1 X86.463 Y170.799 E10.12697
G1 X86.119 Y171.939 E10.16657
G1 X85.774 Y172.858 E10.19922
G1 X85.549 Y173.316 E10.2162
G1 X84.987 Y174.365 E10.25578
G1 X84.609 Y174.993 E10.28016
G1 X84.169 Y175.586 E10.30472
G1 X83.394 Y176.529 E10.34531
G1 X82.875 Y177.098 E10.37093
G1 X82.369 Y177.553 E10.39356
G1 X81.447 Y178.309 E10.43322
G1 X80.931 Y178.696 E10.45467
G1 X80.23 Y179.123 E10.48197
G1 X79.176 Y179.687 E10.52173
G1 X78.672 Y179.932 E10.54037
G1 X77.807 Y180.254 E10.57107
G1 X76.665 Y180.599 E10.61075
G1 X76.143 Y180.736 E10.6287
G1 X75.229 Y180.884 E10.65949
G1 X74.032 Y181.002 E10.6995
G1 X73.306 Y181.038 E10.72367
G1 X35.298 Y181.038 E11.98783
G1 X34.572 Y181.002 E12.012
G1 X33.375 Y180.884 E12.05201
G1 X32.439 Y180.731 E12.08355
G1 X31.939 Y180.599 E12.10075
G1 X30.797 Y180.254 E12.14043
G1 X29.914 Y179.924 E12.17178
G1 X29.428 Y179.687 E12.18977
G1 X28.374 Y179.123 E12.22953
G1 X27.657 Y178.685 E12.25747
G1 X27.157 Y178.309 E12.27828
G1 X26.235 Y177.553 E12.31794
G1 X25.666 Y177.035 E12.34353
G1 X25.21 Y176.529 E12.36618
G1 X24.435 Y175.586 E12.40678
G1 X23.983 Y174.975 E12.43206
G1 X23.617 Y174.365 E12.45572
G1 X23.055 Y173.316 E12.4953
G1 X22.821 Y172.838 E12.513
G1 X22.485 Y171.939 E12.54492
G1 X22.141 Y170.799 E12.58453
G1 X22.004 Y170.279 E12.60241
G1 X21.856 Y169.366 E12.63318
G1 X21.738 Y168.171 E12.67312
G1 X21.702 Y167.444 E12.69733
G1 X21.702 Y142.434 E13.52916
G1 X21.738 Y141.707 E13.55337
G1 X21.856 Y140.511 E13.59334
G1 X22.009 Y139.576 E13.62486
G1 X22.141 Y139.078 E13.64199
G1 X22.485 Y137.938 E13.6816
G1 X22.83 Y137.019 E13.71425
G1 X23.055 Y136.561 E13.73122
G1 X23.617 Y135.512 E13.7708
G1 X23.995 Y134.884 E13.79518
G1 X24.429 Y134.298 E13.81943
G1 X25.188 Y133.372 E13.85926
G1 X25.693 Y132.815 E13.88426
G1 X26.231 Y132.328 E13.9084
G1 X27.157 Y131.568 E13.94824
G1 X27.765 Y131.119 E13.97338
G1 X28.375 Y130.753 E13.99704
G1 X29.424 Y130.191 E14.03662
G1 X29.932 Y129.944 E14.05541
G1 X30.803 Y129.62 E14.08632
G1 X31.945 Y129.276 E14.12599
G1 X32.461 Y129.141 E14.14373
G0 F6000 X32.55 Y129.531
G1 F1200 X33.409 Y129.391 E14.17268
G1 X34.606 Y129.272 E14.21268
G1 X35.298 Y129.238 E14.23573
G1 X73.306 Y129.238 E15.49988
G1 X73.998 Y129.272 E15.52292
G1 X75.195 Y129.391 E15.56293
G1 X76.076 Y129.536 E15.59263
G1 X76.544 Y129.659 E15.60872
G1 X77.686 Y130.003 E15.64839
G1 X78.528 Y130.317 E15.67828
G1 X78.991 Y130.544 E15.69543
G1 X80.04 Y131.106 E15.73501
G1 X80.635 Y131.464 E15.75811
G1 X81.192 Y131.877 E15.78117
G1 X82.117 Y132.636 E15.82097
G1 X82.642 Y133.112 E15.84454
G1 X83.105 Y133.624 E15.8675
G1 X83.865 Y134.551 E15.90737
G1 X84.231 Y135.039 E15.92766
G1 X84.633 Y135.7 E15.95339
G1 X85.196 Y136.751 E15.99304
G1 X85.431 Y137.231 E16.01082
G1 X85.737 Y138.055 E16.04005
G1 X86.087 Y139.217 E16.08042
G1 X86.264 Y139.944 E16.1053
G1 X86.35 Y140.549 E16.12563
G1 X86.468 Y141.745 E16.1656
G1 X86.502 Y142.432 E16.18848
G1 X86.502 Y167.442 E17.02031
G1 X86.468 Y168.129 E17.04319
G1 X86.35 Y169.326 E17.0832
G1 X86.205 Y170.212 E17.11306
G1 X86.081 Y170.683 E17.12926
G1 X85.737 Y171.823 E17.16886
G1 X85.409 Y172.694 E17.19982
G1 X85.196 Y173.127 E17.21587
G1 X84.634 Y174.176 E17.25545
G1 X84.276 Y174.771 E17.27855
G1 X83.86 Y175.333 E17.3018
G1 X83.085 Y176.276 E17.3424
G1 X82.58 Y176.827 E17.36726
G1 X82.115 Y177.244 E17.38803
G1 X81.193 Y178 E17.42769
G1 X80.705 Y178.366 E17.44798
G1 X80.042 Y178.77 E17.4738
G1 X78.988 Y179.334 E17.51356
G1 X78.51 Y179.567 E17.53125
G1 X77.691 Y179.871 E17.5603
G1 X76.549 Y180.216 E17.59998
G1 X76.054 Y180.346 E17.617
G1 X75.19 Y180.486 E17.64611
G1 X73.993 Y180.604 E17.68612
G1 X73.306 Y180.638 E17.709
G1 X35.298 Y180.638 E18.97315
G1 X34.611 Y180.604 E18.99603
G1 X33.414 Y180.486 E19.03603
G1 X32.528 Y180.341 E19.06589
G1 X32.055 Y180.216 E19.08216
G1 X30.913 Y179.871 E19.12184
G1 X30.076 Y179.559 E19.15155
G1 X29.616 Y179.334 E19.16858
G1 X28.562 Y178.77 E19.20834
G1 X27.883 Y178.355 E19.23481
G1 X27.411 Y178 E19.25446
G1 X26.489 Y177.244 E19.29411
G1 X25.936 Y176.739 E19.31902
G1 X25.519 Y176.276 E19.33974
G1 X24.744 Y175.333 E19.38034
G1 X24.316 Y174.753 E19.40432
G1 X23.97 Y174.176 E19.42669
G1 X23.408 Y173.127 E19.46628
G1 X23.186 Y172.674 E19.48305
G1 X22.867 Y171.823 E19.51328
G1 X22.523 Y170.683 E19.55289
G1 X22.394 Y170.19 E19.56984
G1 X22.254 Y169.327 E19.59891
G1 X22.136 Y168.132 E19.63885
G1 X22.102 Y167.444 E19.66177
G1 X22.102 Y142.434 E20.4936
G1 X22.136 Y141.747 E20.51648
G1 X22.254 Y140.551 E20.55645
G1 X22.399 Y139.665 E20.58631
G1 X22.523 Y139.194 E20.60251
G1 X22.867 Y138.054 E20.64212
G1 X23.195 Y137.183 E20.67307
G1 X23.408 Y136.75 E20.68912
G1 X23.97 Y135.701 E20.7287
G1 X24.328 Y135.106 E20.7518
G1 X24.738 Y134.552 E20.77472
G1 X25.497 Y133.626 E20.81454
G1 X25.976 Y133.098 E20.83826
G1 X26.485 Y132.637 E20.8611
G1 X27.411 Y131.877 E20.90094
G1 X27.987 Y131.452 E20.92475
G1 X28.564 Y131.106 E20.94713
G1 X29.613 Y130.544 E20.98671
G1 X30.094 Y130.309 E21.00451
G1 X30.918 Y130.003 E21.03375
G1 X32.06 Y129.659 E21.07342
G1 X32.55 Y129.531 E21.09026
G0 F6000 X32.638 Y129.921
G1 F1200 X33.448 Y129.789 E21.11756
G1 X34.645 Y129.67 E21.15757
G1 X35.298 Y129.638 E21.17931
G1 X73.306 Y129.638 E22.44346
G1 X73.959 Y129.67 E22.46521
G1 X75.156 Y129.789 E22.50522
G1 X75.988 Y129.926 E22.53326
G1 X76.429 Y130.042 E22.54843
G1 X77.571 Y130.386 E22.5881
G1 X78.366 Y130.683 E22.61632
G1 X78.802 Y130.896 E22.63246
G1 X79.851 Y131.458 E22.67204
G1 X80.413 Y131.796 E22.69386
G1 X80.939 Y132.186 E22.71564
G1 X81.864 Y132.945 E22.75543
G1 X82.359 Y133.395 E22.77768
G1 X82.796 Y133.878 E22.79935
G1 X83.556 Y134.805 E22.83922
G1 X83.902 Y135.266 E22.85839
G1 X84.281 Y135.888 E22.88261
G1 X84.844 Y136.939 E22.92227
G1 X85.065 Y137.393 E22.93906
G1 X85.354 Y138.171 E22.96667
G1 X85.704 Y139.333 E23.00703
G1 X85.874 Y140.038 E23.03115
G1 X85.952 Y140.588 E23.04963
G1 X86.07 Y141.784 E23.0896
G1 X86.102 Y142.432 E23.11118
G1 X86.102 Y167.442 E23.94301
G1 X86.07 Y168.089 E23.96456
G1 X85.952 Y169.286 E24.00457
G1 X85.815 Y170.124 E24.03281
G1 X85.698 Y170.568 E24.04808
G1 X85.354 Y171.708 E24.08768
G1 X85.045 Y172.529 E24.11686
G1 X84.844 Y172.938 E24.13202
G1 X84.282 Y173.987 E24.1716
G1 X83.944 Y174.549 E24.19341
G1 X83.551 Y175.079 E24.21536
G1 X82.776 Y176.022 E24.25595
G1 X82.285 Y176.556 E24.28008
G1 X81.862 Y176.935 E24.29897
G1 X80.94 Y177.691 E24.33863
G1 X80.478 Y178.037 E24.35783
G1 X79.853 Y178.417 E24.38216
G1 X78.799 Y178.981 E24.42192
G1 X78.348 Y179.201 E24.4386
G1 X77.576 Y179.488 E24.466
G1 X76.434 Y179.833 E24.50568
G1 X75.966 Y179.956 E24.52177
G1 X75.15 Y180.088 E24.54926
G1 X73.953 Y180.206 E24.58927
G1 X73.306 Y180.238 E24.61082
G1 X35.298 Y180.238 E25.87497
G1 X34.651 Y180.206 E25.89651
G1 X33.454 Y180.088 E25.93652
G1 X32.616 Y179.951 E25.96476
G1 X32.17 Y179.833 E25.9801
G1 X31.028 Y179.488 E26.01978
G1 X30.238 Y179.193 E26.04783
G1 X29.805 Y178.981 E26.06387
G1 X28.751 Y178.417 E26.10363
G1 X28.11 Y178.026 E26.1286
G1 X27.664 Y177.691 E26.14715
G1 X26.742 Y176.935 E26.18681
G1 X26.207 Y176.444 E26.21096
G1 X25.828 Y176.022 E26.22982
G1 X25.053 Y175.079 E26.27042
G1 X24.648 Y174.531 E26.29309
G1 X24.322 Y173.987 E26.31418
G1 X23.76 Y172.938 E26.35376
G1 X23.55 Y172.509 E26.36965
G1 X23.25 Y171.708 E26.3981
G1 X22.906 Y170.568 E26.4377
G1 X22.784 Y170.102 E26.45372
G1 X22.652 Y169.288 E26.48115
G1 X22.534 Y168.093 E26.52109
G1 X22.502 Y167.444 E26.5427
G1 X22.502 Y142.434 E27.37454
G1 X22.534 Y141.786 E27.39612
G1 X22.652 Y140.59 E27.43609
G1 X22.789 Y139.753 E27.4643
G1 X22.906 Y139.309 E27.47957
G1 X23.25 Y138.169 E27.51918
G1 X23.559 Y137.348 E27.54835
G1 X23.76 Y136.939 E27.56351
G1 X24.322 Y135.89 E27.60309
G1 X24.66 Y135.328 E27.6249
G1 X25.048 Y134.805 E27.64656
G1 X25.807 Y133.879 E27.68639
G1 X26.259 Y133.381 E27.70875
G1 X26.739 Y132.946 E27.7303
G1 X27.665 Y132.186 E27.77014
G1 X28.209 Y131.784 E27.79264
G1 X28.753 Y131.458 E27.81373
G1 X29.802 Y130.896 E27.85332
G1 X30.256 Y130.675 E27.87011
G1 X31.033 Y130.386 E27.89768
G1 X32.175 Y130.042 E27.93735
G1 X32.638 Y129.921 E27.95327
G0 F6000 X32.727 Y130.311
G1 F1200 X33.488 Y130.187 E27.97891
G1 X34.685 Y130.068 E28.01892
G1 X35.298 Y130.038 E28.03933
G1 X73.306 Y130.038 E29.30349
G1 X73.919 Y130.068 E29.3239
G1 X75.116 Y130.187 E29.36391
G1 X75.899 Y130.316 E29.3903
G1 X76.313 Y130.425 E29.40454
G1 X77.455 Y130.769 E29.44421
G1 X78.203 Y131.048 E29.47076
G1 X78.613 Y131.249 E29.48595
G1 X79.662 Y131.811 E29.52553
G1 X80.191 Y132.129 E29.54606
G1 X80.685 Y132.495 E29.56651
G1 X81.61 Y133.254 E29.60631
G1 X82.076 Y133.678 E29.62726
G1 X82.487 Y134.131 E29.6476
G1 X83.247 Y135.058 E29.68747
G1 X83.572 Y135.493 E29.70553
G1 X83.928 Y136.077 E29.72828
G1 X84.491 Y137.128 E29.76794
G1 X84.7 Y137.556 E29.78378
G1 X84.971 Y138.286 E29.80968
G1 X85.321 Y139.448 E29.85004
G1 X85.485 Y140.132 E29.87344
G1 X85.554 Y140.627 E29.89006
G1 X85.672 Y141.823 E29.93003
G1 X85.702 Y142.432 E29.95031
G1 X85.702 Y167.442 E30.78215
G1 X85.672 Y168.05 E30.8024
G1 X85.554 Y169.247 E30.8424
G1 X85.425 Y170.035 E30.86896
G1 X85.315 Y170.452 E30.8833
G1 X84.971 Y171.592 E30.92291
G1 X84.68 Y172.365 E30.95038
G1 X84.491 Y172.749 E30.96461
G1 X83.929 Y173.798 E31.0042
G1 X83.611 Y174.327 E31.02472
G1 X83.242 Y174.825 E31.04534
G1 X82.467 Y175.768 E31.08594
G1 X81.99 Y176.285 E31.10933
G1 X81.608 Y176.625 E31.12634
G1 X80.686 Y177.381 E31.166
G1 X80.251 Y177.707 E31.18408
G1 X79.664 Y178.065 E31.20695
G1 X78.61 Y178.629 E31.24671
G1 X78.185 Y178.836 E31.26243
G1 X77.46 Y179.105 E31.28815
G1 X76.318 Y179.45 E31.32783
G1 X75.877 Y179.566 E31.343
G1 X75.111 Y179.69 E31.3688
G1 X73.914 Y179.808 E31.40881
G1 X73.306 Y179.838 E31.42906
G1 X35.298 Y179.838 E32.69321
G1 X34.69 Y179.808 E32.71345
G1 X33.493 Y179.69 E32.75346
G1 X32.705 Y179.561 E32.78002
G1 X32.286 Y179.45 E32.79443
G1 X31.144 Y179.105 E32.83411
G1 X30.401 Y178.828 E32.86049
G1 X29.994 Y178.629 E32.87555
G1 X28.94 Y178.065 E32.91531
G1 X28.337 Y177.696 E32.93883
G1 X27.918 Y177.381 E32.95626
G1 X26.996 Y176.625 E32.99592
G1 X26.478 Y176.149 E33.01932
G1 X26.137 Y175.768 E33.03632
G1 X25.362 Y174.825 E33.07692
G1 X24.981 Y174.309 E33.09825
G1 X24.675 Y173.798 E33.11807
G1 X24.113 Y172.749 E33.15765
G1 X23.915 Y172.345 E33.17261
G1 X23.633 Y171.592 E33.19935
G1 X23.289 Y170.452 E33.23896
G1 X23.174 Y170.013 E33.25405
G1 X23.05 Y169.248 E33.27983
G1 X22.932 Y168.053 E33.31977
G1 X22.902 Y167.444 E33.34005
G1 X22.902 Y142.434 E34.17188
G1 X22.932 Y141.825 E34.19216
G1 X23.05 Y140.629 E34.23214
G1 X23.179 Y139.842 E34.25866
G1 X23.289 Y139.425 E34.27301
G1 X23.633 Y138.285 E34.31261
G1 X23.924 Y137.512 E34.34008
G1 X24.113 Y137.128 E34.35432
G1 X24.675 Y136.079 E34.3939
G1 X24.993 Y135.55 E34.41443
G1 X25.357 Y135.059 E34.43476
G1 X26.116 Y134.133 E34.47458
G1 X26.542 Y133.664 E34.49565
G1 X26.993 Y133.255 E34.5159
G1 X27.919 Y132.495 E34.55575
G1 X28.431 Y132.117 E34.57691
G1 X28.942 Y131.811 E34.59672
G1 X29.991 Y131.249 E34.63631
G1 X30.419 Y131.04 E34.65215
G1 X31.149 Y130.769 E34.67805
G1 X32.291 Y130.425 E34.71772
G1 X32.727 Y130.311 E34.7327
G0 F6000 X32.816 Y130.701
G1 F1200 X33.527 Y130.585 E34.75667
G1 X34.724 Y130.466 E34.79667
G1 X35.298 Y130.438 E34.81579
